!!!COM: Music21
!!!OTL: waltz_Saffron-Kilt--The
!!!OMV: waltz_Saffron-Kilt--The
**kern
*clefG2
*k[f#]
*G:
*M3/4
=1
8ddL
8ccJ
=
4b
4.g
8a
=
4b
4dd
4g
=
4cc
4ee
4gg
=
2dd
8ddL
8eeJ
=
4dd
4.a
8b
=
4cc
4.dd
8cc
=
2.b
=
2b
8ddL
8ccJ
=
4b
4.g
8a
!!linebreak:original
=
4b
4dd
4g
=
4cc
4ee
4gg
=
2dd
8ddL
8eeJ
=
4dd
4.a
8b
=
4cc
4b
4a
=
2.g
=
2g
8ddL
8ccJ
=||
4b
4dd
4g
=
2.cc
=
4ee
4gg
4b
=
2dd
8ddL
8eeJ
!!linebreak:original
=
4dd
4.a
8b
=
4cc
4.dd
8cc
=
2.b
=
2b
8ddL
8ccJ
=
4b
4dd
4g
=
2.cc
=
4ee
4gg
4b
=
2dd
8ddL
8eeJ
=
4dd
4.a
8b
=
4cc
4b
4a
=
2.g
=
2g
4ryy
=||
*-
